resources/haticons/SVG/duo.svg

<!-- Generated by IcoMoon.io -->
<svg version="1.1" xmlns="http://www.w3.org/2000/svg" width="24" height="24" viewBox="0 0 24 24">
<title>duo</title>
<path d="M23.925 12.975c-0.45 6.15-5.625 11.025-11.925 11.025-6.6 0-12-5.4-12-12 0-6.3 4.875-11.475 11.025-11.925 0.15-0.075 0.225-0.075 0.375-0.075h10.65c1.050 0 1.95 0.9 1.95 1.95v10.65c0 0.15 0 0.225-0.075 0.375zM18.75 7.5l-2.7 2.625v-1.725c0-0.675-0.525-1.2-1.2-1.2h-6.825c-0.675 0-1.2 0.525-1.2 1.2v5.85c0 0.675 0.525 1.2 1.2 1.2h6.825c0.675 0 1.2-0.525 1.2-1.2v-1.725l2.7 2.625v-7.65z"></path>
</svg>

<svg xmlns="http://www.w3.org/2000/svg" width="24" height="24"><path d="M23.925 12.975C23.475 19.125 18.3 24 12 24 5.4 24 0 18.6 0 12 0 5.7 4.875.525 11.025.075 11.175 0 11.25 0 11.4 0h10.65C23.1 0 24 .9 24 1.95V12.6c0 .15 0 .225-.075.375zM18.75 7.5l-2.7 2.625V8.4c0-.675-.525-1.2-1.2-1.2H8.025c-.675 0-1.2.525-1.2 1.2v5.85c0 .675.525 1.2 1.2 1.2h6.825c.675 0 1.2-.525 1.2-1.2v-1.725l2.7 2.625V7.5z"/></svg>
